img/logos/jspm.svg

<?xml version="1.0" encoding="UTF-8" standalone="no" ?>
<svg width="256px" height="254px" viewBox="0 0 256 254" version="1.1" xmlns="http://www.w3.org/2000/svg" xmlns:xlink="http://www.w3.org/1999/xlink" preserveAspectRatio="xMinYMin meet">
    <g>
        <path d="M33.0104262,75.3587572 L126.965279,32.6862114 L222.989574,75.3587572 L222.989574,179.295622 L126.965279,221.282043 L33.0104262,184.801221 L33.0104262,75.3587572" fill="#EEDB88"></path>
        <path d="M126.616684,0.643069233 L0.734886863,57.8183046 L0.734886863,204.449848 L126.616684,253.325185 L255.265113,197.074005 L255.265113,57.8183046 L126.616684,0.643069233 L126.616684,0.643069233 Z M110.476147,204.449848 L38.543692,172.174309 L38.543692,102.084431 L110.476147,131.593337 L110.476147,204.449848 L110.476147,204.449848 Z M54.2249672,69.8088916 L128,37.527819 L199.932455,69.8088916 L126.616684,102.084431 L54.2249672,69.8088916 L54.2249672,69.8088916 Z M215.608197,171.250253 L145.523853,204.449848 L145.523853,131.593337 L215.608197,102.084431 L215.608197,171.250253 L215.608197,171.250253 Z" fill="#959595"></path>
    </g>
</svg>

<svg width="256" height="254" viewBox="0 0 256 254" xmlns="http://www.w3.org/2000/svg" preserveAspectRatio="xMinYMin meet"><path d="M33.01 75.36l93.955-42.674L222.99 75.36v103.936l-96.025 41.986-93.955-36.48V75.358" fill="#EEDB88"/><path d="M126.617.643L.735 57.818V204.45l125.882 48.875 128.648-56.25V57.817L126.617.643zm-16.14 203.807l-71.933-32.276v-70.09l71.932 29.51v72.856zM54.224 69.81L128 37.527l71.932 32.28-73.315 32.276L54.225 69.81zm161.383 101.44l-70.084 33.2v-72.857l70.084-29.51v69.167z" fill="#959595"/></svg>
